src/img/logos/workergathering.svg

<svg fill="none" height="64" viewBox="0 0 138 64" width="138" xmlns="http://www.w3.org/2000/svg" xmlns:xlink="http://www.w3.org/1999/xlink"><clipPath id="a"><path d="m0 0h138v64h-138z"/></clipPath><g clip-path="url(#a)"><path clip-rule="evenodd" d="m.428589 0v64h137.142411v-64zm35.094511 58.5552h-1.5027l-.0904-.9077c-.1856.3466-.4736.6285-.8256.8079-.5535.2891-1.1575.2959-1.7415.2959-1.0368 0-2.0935-.0503-2.9692-.9383-.7653-.7881-.9264-1.826-.9264-2.6613 0-.9677.2112-1.9554 1.0443-2.7538.9254-.887 2.0436-1.0277 3.11-1.0277.7854 0 1.79.0799 2.6105.5685 1.0061.6093 1.2083 1.4269 1.2381 2.0257h-2.2703c-.0125-.1481-.0602-.2913-.1388-.4178-.0788-.1265-.1867-.233-.3147-.3103-.2982-.19-.6713-.23-.986-.23-.4333 0-.9695.0599-1.3694.479-.3624.3698-.522.9782-.522 1.6465 0 .7983.2521 1.2774.5138 1.5568.4125.4288.8951.4687 1.359.4687.3624 0 .7345-.0296 1.077-.2595.1428-.0965.2631-.222.3531-.3682.0902-.1461.1477-.3096.169-.4797h-1.2784v-1.2974h3.463zm8.4152 0-.4937-1.2072h-2.8289l-.5035 1.2072h-2.2844l3.1408-6.9845h2.124l3.1326 6.9845zm10.0338-5.3485h-2.3561v5.3485h-2.2375v-5.3485h-2.3658v-1.636h6.9565zm9.7832 5.3485h-2.2376v-2.8542h-2.8998v2.8542h-2.2374v-6.9845h2.2374v2.4943h2.8998v-2.4943h2.2376zm9.9732 0h-6.8048v-6.9845h6.6946v1.636h-4.4601v1.0578h3.6747v1.517h-3.6747v1.137h4.5703zm7.8777 0c-.2313-.3097-.2619-.5291-.282-.8782l-.0298-.499-.0049-.0692c-.0174-.2543-.0403-.59-.3076-.8091-.2715-.2216-.7645-.2291-.9159-.2291h-1.268v2.4846h-2.2374v-6.9845h4.5703c.5967 0 1.3188.0199 1.9027.4591.6041.4487.7049 1.077.7049 1.5464 0 .4288-.1008.8681-.4431 1.2169-.2505.2392-.5586.4109-.8949.4991v.0398c.3209.0408.6172.1926.836.4288.305.3401.3299.7432.3489 1.0472l.0031.0507.0403.6786c.0201.4088.0605.6654.2924 1.0179zm7.3658 0h-2.2376v-6.9845h2.2376zm10.6513 0h-2.1323l-3.1325-4.2137v4.2137h-2.2377v-6.9845h2.1444l3.1206 4.2137v-4.2137h2.2375zm10.9067 0h-1.499l-.091-.9077c-.186.3462-.474.6282-.825.8079-.555.2891-1.158.2959-1.742.2959-1.037 0-2.094-.0503-2.97-.9383-.764-.7881-.926-1.826-.926-2.6613 0-.9677.212-1.9554 1.044-2.7538.926-.887 2.044-1.0277 3.111-1.0277.785 0 1.79.0799 2.61.5685 1.007.6093 1.209 1.4269 1.238 2.0257h-2.274c-.013-.1481-.06-.2911-.139-.4176-.079-.1266-.186-.233-.314-.3105-.298-.19-.671-.23-.987-.23-.432 0-.966.0599-1.368.479-.363.3698-.523.9782-.523 1.6465 0 .7983.252 1.2774.514 1.5568.413.4288.895.4687 1.359.4687.362 0 .735-.0296 1.076-.2595.143-.0965.264-.222.354-.3682.09-.1461.147-.3096.169-.4797h-1.28v-1.2974h3.463zm21.164-12.0331h-125.38749v-40.69223h125.38749zm-100.9464-24.0023-4.0269 13.4923h-6.3239l-5.9271-19.6764h6.4089l2.8641 13.6891.4542-2.0522 3.7716-11.6369h5.558l3.7718 11.665.4542 2.0241 2.8639-13.6891h6.4089l-5.9271 19.6764h-6.3523zm27.8851 6.4936h-3.571v6.9987h-6.2956v-19.6764h12.8737c1.673 0 3.715.0562 5.3596 1.293 1.702 1.2648 1.9854 3.0362 1.9854 4.3573 0 1.2116-.2834 2.4455-1.2478 3.4295-.7073.6731-1.5758 1.1564-2.524 1.4045v.1125c.9928.1404 1.8431.6171 2.354 1.2087.8594.9589.9298 2.0944.9832 2.9518l.0088.1397.1141 1.9118c.0552 1.1526.1686 1.8829.8203 2.8668h-6.5222c-.6526-.8715-.7376-1.4895-.7943-2.4735l-.085-1.4047-.0068-.0899-.0079-.1101c-.0499-.7152-.1157-1.658-.864-2.2735-.766-.618-2.1553-.6462-2.5805-.6462zm1.0226-8.3485h-4.5936l.0022 4.3565h4.6503c.7659 0 1.7302-.1404 2.212-.4776.3096-.2247.8205-.7592.8205-1.7986 0-.7031-.2268-1.35-.9361-1.7431-.582-.3411-1.3131-.3392-2.0078-.3374zm17.9476 9.2756 2.1555-1.9398 6.1822 8.0114 7.6568-.028-9.6989-11.4403 9.1313-8.2081h-7.6001l-7.8268 7.505v-7.505h-6.2956v19.6764h6.2956zm27.5701-.9271h-3.57v6.9987h-6.2959v-19.6764h12.8729c1.673 0 3.719.0562 5.359 1.293 1.702 1.2648 1.986 3.0362 1.986 4.3573 0 1.2116-.284 2.4455-1.248 3.4295-.707.6733-1.576 1.1566-2.524 1.4045v.1125c.993.1404 1.843.6171 2.354 1.2087.86.9589.931 2.0944.984 2.9518l.009.1397.113 1.9118c.055 1.1526.169 1.8829.82 2.8668h-6.522c-.652-.8715-.737-1.4895-.793-2.4735l-.086-1.4047c-.005-.0642-.01-.1311-.015-.2-.05-.7152-.115-1.658-.864-2.2735-.766-.618-2.155-.6462-2.58-.6462zm1.024-8.3485h-4.594l.002 4.3565h4.651c.765 0 1.729-.1404 2.211-.4776.31-.2247.82-.7592.82-1.7986 0-.7031-.226-1.35-.935-1.7431-.583-.3411-1.314-.3392-2.008-.3374zm17.333 10.0628h-6.126v5.2842h6.126zm-80.5888 25.2527h-1.8125l.8966-2.3043zm37.5378-2.8737c.2469-.0006.5051-.0011.7145.1197.2514.1383.3319.3698.3319.6188 0 .369-.1813.559-.2917.6387-.1715.1198-.5131.1694-.7854.1694h-1.6504v-1.5465h1.6303c.0168 0 .0338-.0001.0508-.0001z" fill="#fff" fill-rule="evenodd"/></g></svg>

<svg width="138" height="64" viewBox="0 0 138 64" fill="none" xmlns="http://www.w3.org/2000/svg">
<g clip-path="url(#clip0_13_306)">
<path fill-rule="evenodd" clip-rule="evenodd" d="M0.428589 0V64H137.571V0H0.428589ZM35.5231 58.5552H34.0204L33.93 57.6475C33.7444 57.9941 33.4564 58.276 33.1044 58.4554C32.5509 58.7445 31.9469 58.7513 31.3629 58.7513C30.3261 58.7513 29.2694 58.701 28.3937 57.813C27.6284 57.0249 27.4673 55.987 27.4673 55.1517C27.4673 54.184 27.6785 53.1963 28.5116 52.3979C29.437 51.5109 30.5552 51.3702 31.6216 51.3702C32.407 51.3702 33.4116 51.4501 34.2321 51.9387C35.2382 52.548 35.4404 53.3656 35.4702 53.9644H33.1999C33.1874 53.8163 33.1397 53.6731 33.0611 53.5466C32.9823 53.4201 32.8744 53.3136 32.7464 53.2363C32.4482 53.0463 32.0751 53.0063 31.7604 53.0063C31.3271 53.0063 30.7909 53.0662 30.391 53.4853C30.0286 53.8551 29.869 54.4635 29.869 55.1318C29.869 55.9301 30.1211 56.4092 30.3828 56.6886C30.7953 57.1174 31.2779 57.1573 31.7418 57.1573C32.1042 57.1573 32.4763 57.1277 32.8188 56.8978C32.9616 56.8013 33.0819 56.6758 33.1719 56.5296C33.2621 56.3835 33.3196 56.22 33.3409 56.0499H32.0625V54.7525H35.5255L35.5231 58.5552ZM43.9383 58.5552L43.4446 57.348H40.6157L40.1122 58.5552H37.8278L40.9686 51.5707H43.0926L46.2252 58.5552H43.9383ZM53.9721 53.2067H51.616V58.5552H49.3785V53.2067H47.0127V51.5707H53.9692L53.9721 53.2067ZM63.7553 58.5552H61.5177V55.701H58.6179V58.5552H56.3805V51.5707H58.6179V54.065H61.5177V51.5707H63.7553V58.5552ZM73.7285 58.5552H66.9237V51.5707H73.6183V53.2067H69.1582V54.2645H72.8329V55.7815H69.1582V56.9185H73.7285V58.5552ZM81.6062 58.5552C81.3749 58.2455 81.3443 58.0261 81.3242 57.677L81.2944 57.178L81.2895 57.1088C81.2721 56.8545 81.2492 56.5188 80.9819 56.2997C80.7104 56.0781 80.2174 56.0706 80.066 56.0706H78.798V58.5552H76.5606V51.5707H81.1309C81.7276 51.5707 82.4497 51.5906 83.0336 52.0298C83.6377 52.4785 83.7385 53.1068 83.7385 53.5762C83.7385 54.005 83.6377 54.4443 83.2954 54.7931C83.0449 55.0323 82.7368 55.204 82.4005 55.2922V55.332C82.7214 55.3728 83.0177 55.5246 83.2365 55.7608C83.5415 56.1009 83.5664 56.504 83.5854 56.808L83.5885 56.8587L83.6288 57.5373C83.6489 57.9461 83.6893 58.2027 83.9212 58.5552H81.6062ZM88.972 58.5552H86.7344V51.5707H88.972V58.5552ZM99.6233 58.5552H97.491L94.3585 54.3415V58.5552H92.1208V51.5707H94.2652L97.3858 55.7844V51.5707H99.6233V58.5552ZM110.53 58.5552H109.031L108.94 57.6475C108.754 57.9937 108.466 58.2757 108.115 58.4554C107.56 58.7445 106.957 58.7513 106.373 58.7513C105.336 58.7513 104.279 58.701 103.403 57.813C102.639 57.0249 102.477 55.987 102.477 55.1517C102.477 54.184 102.689 53.1963 103.521 52.3979C104.447 51.5109 105.565 51.3702 106.632 51.3702C107.417 51.3702 108.422 51.4501 109.242 51.9387C110.249 52.548 110.451 53.3656 110.48 53.9644H108.206C108.193 53.8163 108.146 53.6733 108.067 53.5468C107.988 53.4202 107.881 53.3138 107.753 53.2363C107.455 53.0463 107.082 53.0063 106.766 53.0063C106.334 53.0063 105.8 53.0662 105.398 53.4853C105.035 53.8551 104.875 54.4635 104.875 55.1318C104.875 55.9301 105.127 56.4092 105.389 56.6886C105.802 57.1174 106.284 57.1573 106.748 57.1573C107.11 57.1573 107.483 57.1277 107.824 56.8978C107.967 56.8013 108.088 56.6758 108.178 56.5296C108.268 56.3835 108.325 56.22 108.347 56.0499H107.067V54.7525H110.53V58.5552ZM131.694 46.5221H6.30651V5.82987H131.694V46.5221ZM30.7476 22.5198L26.7207 36.0121H20.3968L14.4697 16.3357H20.8786L23.7427 30.0248L24.1969 27.9726L27.9685 16.3357H33.5265L37.2983 28.0007L37.7525 30.0248L40.6164 16.3357H47.0253L41.0982 36.0121H34.7459L30.7476 22.5198ZM58.6327 29.0134H55.0617V36.0121H48.7661V16.3357H61.6398C63.3128 16.3357 65.3548 16.3919 66.9994 17.6287C68.7014 18.8935 68.9848 20.6649 68.9848 21.986C68.9848 23.1976 68.7014 24.4315 67.737 25.4155C67.0297 26.0886 66.1612 26.5719 65.213 26.82V26.9325C66.2058 27.0729 67.0561 27.5496 67.567 28.1412C68.4264 29.1001 68.4968 30.2356 68.5502 31.093L68.559 31.2327L68.6731 33.1445C68.7283 34.2971 68.8417 35.0274 69.4934 36.0113H62.9712C62.3186 35.1398 62.2336 34.5218 62.1769 33.5378L62.0919 32.1331L62.0851 32.0432L62.0772 31.9331C62.0273 31.2179 61.9615 30.2751 61.2132 29.6596C60.4472 29.0416 59.0579 29.0134 58.6327 29.0134ZM59.6553 20.6649H55.0617L55.0639 25.0214H59.7142C60.4801 25.0214 61.4444 24.881 61.9262 24.5438C62.2358 24.3191 62.7467 23.7846 62.7467 22.7452C62.7467 22.0421 62.5199 21.3952 61.8106 21.0021C61.2286 20.661 60.4975 20.6629 59.8028 20.6647L59.6553 20.6649ZM77.6029 29.9405L79.7584 28.0007L85.9406 36.0121L93.5974 35.9841L83.8985 24.5438L93.0298 16.3357H85.4297L77.6029 23.8407V16.3357H71.3073V36.0121H77.6029V29.9405ZM105.173 29.0134H101.603V36.0121H95.3071V16.3357H108.18C109.853 16.3357 111.899 16.3919 113.539 17.6287C115.241 18.8935 115.525 20.6649 115.525 21.986C115.525 23.1976 115.241 24.4315 114.277 25.4155C113.57 26.0888 112.701 26.5721 111.753 26.82V26.9325C112.746 27.0729 113.596 27.5496 114.107 28.1412C114.967 29.1001 115.038 30.2356 115.091 31.093L115.1 31.2327L115.213 33.1445C115.268 34.2971 115.382 35.0274 116.033 36.0113H109.511C108.859 35.1398 108.774 34.5218 108.718 33.5378L108.632 32.1331C108.627 32.0689 108.622 32.002 108.617 31.9331C108.567 31.2179 108.502 30.2751 107.753 29.6596C106.987 29.0416 105.598 29.0134 105.173 29.0134ZM106.197 20.6649H101.603L101.605 25.0214H106.256C107.021 25.0214 107.985 24.881 108.467 24.5438C108.777 24.3191 109.287 23.7846 109.287 22.7452C109.287 22.0421 109.061 21.3952 108.352 21.0021C107.769 20.661 107.038 20.6629 106.344 20.6647L106.197 20.6649ZM123.53 30.7277H117.404V36.0119H123.53V30.7277ZM42.9412 55.9804H41.1287L42.0253 53.6761L42.9412 55.9804ZM80.479 53.1067C80.7259 53.1061 80.9841 53.1056 81.1935 53.2264C81.4449 53.3647 81.5254 53.5962 81.5254 53.8452C81.5254 54.2142 81.3441 54.4042 81.2337 54.4839C81.0622 54.6037 80.7206 54.6533 80.4483 54.6533H78.7979V53.1068H80.4282C80.445 53.1068 80.462 53.1067 80.479 53.1067Z" fill="white"/>
</g>
<defs>
<clipPath id="clip0_13_306">
<rect width="138" height="64" fill="white"/>
</clipPath>
</defs>
</svg>
